src/_assets/sidebar/batch-voting.svg

<svg width="24" height="24" viewBox="0 0 24 24" fill="none" xmlns="http://www.w3.org/2000/svg">
<path d="M11.8023 4.00316C11.8736 3.83175 12.1264 3.83175 12.1977 4.00316C13.5711 7.30415 16.1959 9.92888 19.4968 11.3023C19.6683 11.3736 19.6683 11.6264 19.4968 11.6977C16.1959 13.0711 13.5711 15.6959 12.1977 18.9968C12.1264 19.1683 11.8736 19.1683 11.8023 18.9968C10.4289 15.6959 7.80415 13.0711 4.50316 11.6977C4.33175 11.6264 4.33175 11.3736 4.50316 11.3023C7.80415 9.92888 10.4289 7.30415 11.8023 4.00316Z" stroke="#485F7D" stroke-width="1.5"/>
</svg>

<svg xmlns="http://www.w3.org/2000/svg" width="24" height="24" fill="none"><path stroke="#485F7D" stroke-width="1.5" d="M11.802 4.003c.072-.171.324-.171.396 0a13.54 13.54 0 007.299 7.3c.171.07.171.323 0 .395a13.54 13.54 0 00-7.3 7.299c-.07.171-.323.171-.395 0a13.54 13.54 0 00-7.299-7.3c-.171-.07-.171-.323 0-.395a13.54 13.54 0 007.3-7.299z"/></svg>
